img/instagram.svg

<svg fill="none" height="24" viewBox="0 0 24 24" width="24" xmlns="http://www.w3.org/2000/svg"><g stroke="#111" stroke-linecap="round" stroke-linejoin="round" stroke-width="2"><path d="m17 2h-10c-2.76142 0-5 2.23858-5 5v10c0 2.7614 2.23858 5 5 5h10c2.7614 0 5-2.2386 5-5v-10c0-2.76142-2.2386-5-5-5z"/><path d="m16.0002 11.3701c.1234.8322-.0187 1.6822-.4062 2.429s-1.0007 1.3524-1.7522 1.7306c-.7515.3783-1.6032.51-2.4338.3763-.8307-.1337-1.59804-.5259-2.19297-1.1208-.59492-.5949-.9871-1.3623-1.12077-2.1929-.13366-.8307-.002-1.6823.37626-2.4339.37826-.75149.98386-1.3646 1.73068-1.7521.7468-.3875 1.5967-.52965 2.429-.40624.8489.12588 1.6348.52146 2.2417 1.1283.6068.60685 1.0024 1.39274 1.1283 2.24174z"/><path d="m16.0002 11.3701c.1234.8322-.0187 1.6822-.4062 2.429s-1.0007 1.3524-1.7522 1.7306c-.7515.3783-1.6032.51-2.4338.3763-.8307-.1337-1.59804-.5259-2.19297-1.1208-.59492-.5949-.9871-1.3623-1.12077-2.1929-.13366-.8307-.002-1.6823.37626-2.4339.37826-.75149.98386-1.3646 1.73068-1.7521.7468-.3875 1.5967-.52965 2.429-.40624.8489.12588 1.6348.52146 2.2417 1.1283.6068.60685 1.0024 1.39274 1.1283 2.24174z"/><path d="m17.5 6.5h.01"/><path d="m17.5 6.5h.01"/></g></svg>

<svg width="24" height="24" viewBox="0 0 24 24" fill="none" xmlns="http://www.w3.org/2000/svg">
<path d="M17 2H7C4.23858 2 2 4.23858 2 7V17C2 19.7614 4.23858 22 7 22H17C19.7614 22 22 19.7614 22 17V7C22 4.23858 19.7614 2 17 2Z" stroke="#111111" stroke-width="2" stroke-linecap="round" stroke-linejoin="round"/>
<path d="M16.0002 11.3701C16.1236 12.2023 15.9815 13.0523 15.594 13.7991C15.2065 14.5459 14.5933 15.1515 13.8418 15.5297C13.0903 15.908 12.2386 16.0397 11.408 15.906C10.5773 15.7723 9.80996 15.3801 9.21503 14.7852C8.62011 14.1903 8.22793 13.4229 8.09426 12.5923C7.9606 11.7616 8.09226 10.91 8.47052 10.1584C8.84878 9.40691 9.45438 8.7938 10.2012 8.4063C10.948 8.0188 11.7979 7.87665 12.6302 8.00006C13.4791 8.12594 14.265 8.52152 14.8719 9.12836C15.4787 9.73521 15.8743 10.5211 16.0002 11.3701Z" stroke="#111111" stroke-width="2" stroke-linecap="round" stroke-linejoin="round"/>
<path d="M16.0002 11.3701C16.1236 12.2023 15.9815 13.0523 15.594 13.7991C15.2065 14.5459 14.5933 15.1515 13.8418 15.5297C13.0903 15.908 12.2386 16.0397 11.408 15.906C10.5773 15.7723 9.80996 15.3801 9.21503 14.7852C8.62011 14.1903 8.22793 13.4229 8.09426 12.5923C7.9606 11.7616 8.09226 10.91 8.47052 10.1584C8.84878 9.40691 9.45438 8.7938 10.2012 8.4063C10.948 8.0188 11.7979 7.87665 12.6302 8.00006C13.4791 8.12594 14.265 8.52152 14.8719 9.12836C15.4787 9.73521 15.8743 10.5211 16.0002 11.3701Z" stroke="#111111" stroke-width="2" stroke-linecap="round" stroke-linejoin="round"/>
<path d="M17.5 6.5H17.51" stroke="#111111" stroke-width="2" stroke-linecap="round" stroke-linejoin="round"/>
<path d="M17.5 6.5H17.51" stroke="#111111" stroke-width="2" stroke-linecap="round" stroke-linejoin="round"/>
</svg>
